!!!!SEGMENT: pl-cz--iii-979--006_kasprzykowski-ignacy--missa-es-sanctus.krn
!!!cenid: 18xx:861
!!!COM: Kasprzykowski, Ignacy
!!!COM-rismID: pe30098316
!!!CDT: -1752/02/17
!!!CNT:
!!!OPR: Missa Es
!!!OTL: Sanctus
!!!OMV: 006
!!!PDT:
!!!AGN: Sacred; Mass
!!!SMS-siglum: PL-CZ
!!!SMS-shelfmark: III-979
!!!SMS-shelfwork: 001-006 M
!!!SMS-variant:
!!!SMS-altvar:
!!!NIFC-rismSourceID: 300000565
!!!NIFC-rismChildID: 300000565
!!!NIFC-islandoraID: pl-cz:41795
!!!URL-pdf-islandora: https://repozytorium.nifc.pl/islandora/object/pl-cz%3A41795/datastream/PDF/view
!!!URL-scan:
!!!ONB-nifc: UWAGA: części Mszy: Kyrie, Gloria, Credo, Et incarnatus, Et resurrexit, Sanctus, Pleni, Benedictus, Agnus
!!!OMD: Adagio
!!!AIN: 1 bass 1 clars 1 soprn 1 violn
!!!key: E-
**kern	**dynam	**kern	**text	**kern	**text	**kern	**dynam
*staff4	*	*staff3	*staff3	*staff2	*staff2	*staff1	*
*I"Violino Primo in Dis	*	*I"Baſso in Dis	*	*I"Canto in. Dis	*	*I"Clarinetto Primo in B	*
*I'vl 1 in Dis	*	*I'B	*	*I'S	*	*I'cl 1 in B	*
*Ivioln	*	*Ibass	*	*Isoprn	*	*Iclars	*
*ICstr	*	*ICvox	*	*ICvox	*	*ICww	*
*	*	*IGsolo	*	*IGsolo	*	*	*
*mI"Violino I	*	*mI"Basso	*	*mI"Soprano	*	*mI"Clarinetto I in Bb	*
*clefG2	*	*clefF4	*	*clefC1	*	*clefG2	*
*	*	*	*	*mclefG2	*	*	*
*	*	*	*	*	*	*ITrd1c2	*
*k[b-e-a-]	*	*k[e-b-a-]	*	*k[b-e-a-]	*	*k[b-e-a-]	*
*	*	*mk[b-e-a-]	*	*	*	*	*
*E-:	*	*E-:	*	*E-:	*	*E-:	*
*M2/2	*	*M2/2	*	*M2/2	*	*M2/2	*
*met(c|)	*	*met(c)	*	*met(c)	*	*met(c|)	*
*mmet(c|)	*	*mmet(c|)	*	*mmet(c|)	*	*mmet(c|)	*
*	*	*all\right	*	*all\right	*	*	*
=1	=1	=1	=1	=1	=1	=1	=1
!	!	!LO:MO:mod=!null:null	!	!LO:MO:mod=!null:null	!	!	!
*	*	*2\right	*	*2\right	*	*	*
!	!	!	!	!	!	!LO:TX:a:mod=:t=1.	!
!LO:TX:a:i:mod=:t=Adagio.	!LO:DY:b:mod=:t=for.:rj	!LO:TX:a:mod=:t=Adagio	!	!LO:TX:a:mod=:t=Adagio	!	!LO:TX:a:i:mod=:t=Adagio	!
2G/ 2e-	f	2E-\	San-	2ee-\	San-	1r	.
2G/ 2e-	.	2E-\	-ctus	2ee-\	-ctus	.	.
=2	=2	=2	=2	=2	=2	=2	=2
*	*	*	*ij	*	*	*	*
!	!	!	!	!	!	!	!LO:DY:b:mod=:t=f.
4A-/ 4d	.	4D\	San-	4dd\	San-	4dd\	f
4G/ 4e-	.	4E-\	-ctus	4ee-\	-ctus	4ee-\	.
*	*	*	*Xij	*	*	*	*
2r	.	2r	.	2r	.	8r	.
.	.	.	.	.	.	8b-\L	.
.	.	.	.	.	.	8b-\	.
.	.	.	.	.	.	8b-\J	.
=3	=3	=3	=3	=3	=3	=3	=3
!LO:TX:a:mod=:t=2.	!	!LO:TX:a:mod=:t=2.	!	!LO:TX:a:mod=:t=2.	!	!LO:TX:a:i:t=Solo	!
0r	.	0r	.	0r	.	4.gg\	.
.	.	.	.	.	.	8ee-\	.
.	.	.	.	.	.	8dd\L	.
.	.	.	.	.	.	8ee-\	.
.	.	.	.	.	.	8.ccc\	.
.	.	.	.	.	.	16bb-\Jk	.
=4	=4	=4	=4	=4	=4	=4	=4
.	.	.	.	.	.	(>4.bb-\	.
.	.	.	.	.	.	8aa-\)	.
.	.	.	.	.	.	4ff\	.
.	.	.	.	.	.	4r	.
=5	=5	=5	=5	=5	=5	=5	=5
!	!	!	!	!	!	!LO:TX:a:mod=:t=1.	!
2A-/ 2f	.	2F\	San-	2ff\	San-	1r	.
2G/ 2en	.	2En\	-ctus	2een\	-ctus	.	.
=6	=6	=6	=6	=6	=6	=6	=6
*	*	*	*ij	*	*	*	*
4A-|</ 4f	.	4F\	San-	4ff\	San-	4ff\	.
4A-|</ 4f	.	4F\	-ctus	4ff\	-ctus	4ff\	.
*	*	*	*Xij	*	*	*	*
2r	.	2r	.	2r	.	8r	.
!	!	!	!	!	!	!	!LO:DY:mod=:t=p.
.	.	.	.	.	.	8ccc\L	p
.	.	.	.	.	.	8aa-\	.
.	.	.	.	.	.	8ff\J	.
!	!	!LO:LB:g=original	!	!LO:LB:g=original	!	!	!
=7	=7	=7	=7	=7	=7	=7	=7
!LO:TX:a:mod=:t=1.	!	!LO:TX:a:mod=:t=2.	!	!LO:TX:a:mod=:t=2.	!	!	!
1r	.	0r	.	0r	.	4.ee-\	.
.	.	.	.	.	.	8qqff/	.
.	.	.	.	.	.	8ee-\	.
.	.	.	.	.	.	8dd\L	.
.	.	.	.	.	.	8ee-\	.
.	.	.	.	.	.	8ff\	.
.	.	.	.	.	.	8dd\J	.
=8	=8	=8	=8	=8	=8	=8	=8
!	!	!	!	!	!	!LO:MO:mod=!null:null	!
*	*	*	*	*	*	*2\right	*
2r	.	.	.	.	.	2ee-\	.
8r	.	.	.	.	.	2r	.
8g/L	.	.	.	.	.	.	.
8g/	.	.	.	.	.	.	.
8g/J	.	.	.	.	.	.	.
!	!	!	!	!	!	!LO:LB:g=original	!
=9	=9	=9	=9	=9	=9	=9	=9
!	!	!	!	!	!	!	!LO:DY:b:mod=:t=f.:rj
2G/ 2d 2bn	.	2G\	San-	2bn\	San-	(>2bX\	f
(>8cc\L	.	4E-\	-ctus	4cc\	-ctus	4cc\)	.
8gg\	.	.	.	.	.	.	.
8ee-\	.	4r	.	4r	.	4r	.
8cc\J)	.	.	.	.	.	.	.
!LO:LB:g=original	!	!	!	!	!	!	!
=10	=10	=10	=10	=10	=10	=10	=10
!	!	!	!	!LO:SIC:v:s=2bn\	!	!	!
2G/ 2d 2bn	.	2G\	San-	2b-\	San-	2bX\	.
16cc\LL	.	4E-\	-ctus	4cc\	-ctus	4cc\	.
16gg\	.	.	.	.	.	.	.
16aa-\	.	.	.	.	.	.	.
16gg\JJ	.	.	.	.	.	.	.
16ff\LL	.	4r	.	4r	.	4r	.
16ee-\	.	.	.	.	.	.	.
16dd\	.	.	.	.	.	.	.
16cc\JJ	.	.	.	.	.	.	.
=11	=11	=11	=11	=11	=11	=11	=11
2e-/ 2an	.	2E-\	San-	2an\	San-	2a\	.
8b-\L	.	4D\	-ctus	4b-\	-ctus	4b-\	.
8ff\	.	.	.	.	.	.	.
8dd\	.	4r	.	4r	.	4r	.
8b-\J	.	.	.	.	.	.	.
=12	=12	=12	=12	=12	=12	=12	=12
!	!	!	!	!LO:SIC:v:s=2an\	!	!	!
2e-/ 2an	.	2E-\	San-	2a-\	San-	2a-\	.
!	!	!	!	!LO:SIC:v:s=4a\	!	!	!
4e-/ 4a	.	4F\	-ctus	4a-\	-ctus	4a-\	.
!	!	!	!	!LO:SIC:v:s=4a\	!	!	!
4e-/ 4a	.	4E-\	San-	4a-\	San-	4a-\	.
=13	=13	=13	=13	=13	=13	=13	=13
*^	*	*	*	*	*	*	*
!	!	!	!LO:SIC:v:s=2D;	!	!	!	!	!
2d;>/ 2b-	2ryy	.	2E-;>\	-ctus	2b-;>\	-ctus	2b-;>\	.
*cue	*	*	*	*	*	*	*cue	*
!LO:SIC:s=(16ccLL	!LO:MO:mod=2ryy	!	!	!	!	!	!	!
16cc/LL	2r	.	2r	.	2r	.	(>16cc\LL	.
16b-/	.	.	.	.	.	.	16b-\	.
!LO:SIC:v:s=16an/	!	!	!	!	!	!	!	!
16a-/	.	.	.	.	.	.	16a\	.
16b-/JJ	.	.	.	.	.	.	16b-\JJ	.
16cc/LL	.	.	.	.	.	.	16cc\LL	.
16dd/	.	.	.	.	.	.	16dd\	.
16ee-/	.	.	.	.	.	.	16ee-\	.
!LO:SIC:s=16ffJJ)	!	!	!	!	!	!	!	!
16ff/JJ	.	.	.	.	.	.	16ff\JJ)	.
*Xcue	*	*	*	*	*	*	*Xcue	*
*v	*v	*	*	*	*	*	*	*
!LO:LB:g=original	!	!	!LO:LB:g=original	!	!LO:PB:g=original	!	!
==	==	==	==	==	==	==	==
*-	*-	*-	*-	*-	*-	*-	*-
!!!system-decoration: (s1)[(s2,s3)](s4)
!!!RDF**kern: < = below
!!!RDF**kern: > = above
!!!RDF**kern: | = vertical stroke
!!!filter-modern: sic -sq | shed -e "s/:rj/:RJ/L" | modori -m | shed -e "s/LO:DY:(a|b|rj)/LO:dy:$1/L" | autostem -r | tie -s | shed -k -e "s/[<>]//g" | humtr -p
!!!ENC: Anastazja Marusiak
!!!END: 2020-08-12
!!!ENC: Marta Chmielewska
!!!END: 2021-11-19
!!!ENC-modern: Andrzej Borzym
!!!END-modern: 2022-06-17
!!!YEC: Copyright 2022 Narodowy Instytut Fryderyka Chopina (https://polishscores.org)
!!!YEM: License CC-BY-4.0 (https://creativecommons.org/licenses/by/4.0)
